X:393
T:Lord Seymour’s Reel. RH.393
T:Torryburn Lasses,aka. RH.393
T:Tadie’s Wattle,aka. RH.393
R:reel
S:Rev.R.Harrison’s MS,c1815,Cumbria
N:Larry Bourne,Seymour’s,etc.
N:I halved the last note, and added the z rest. PJH.
O:England
A:Temple Sowerby,Cumbria
Z:vmp.Simon Wilson. Review PJH, 2008.
M:C|
L:1/8
Q:1/2=100
K:G
D|G2BG Bdd2|c2ec dgg2|\
G2BG BcdB|cAGF G2G:|!
z|g2bg afed|edef gdBG|\
g2bg afed|edef g2fa|!
bagf gfed|edef gdBG|\
cdec Bdge|dBcA G2G|]

